lib/svg/git-compare.svg

<svg xmlns="http://www.w3.org/2000/svg" width="14" height="16" viewBox="0 0 14 16"><path d="M5 12H4c-.27-.02-.48-.11-.69-.31-.21-.2-.3-.42-.31-.69V4.72A1.993 1.993 0 0 0 2 1a1.993 1.993 0 0 0-1 3.72V11c.03.78.34 1.47.94 2.06.6.59 1.28.91 2.06.94h1v2l3-3-3-3v2zM2 1.8c.66 0 1.2.55 1.2 1.2 0 .65-.55 1.2-1.2 1.2C1.35 4.2.8 3.65.8 3c0-.65.55-1.2 1.2-1.2zm11 9.48V5c-.03-.78-.34-1.47-.94-2.06-.6-.59-1.28-.91-2.06-.94H9V0L6 3l3 3V4h1c.27.02.48.11.69.31.21.2.3.42.31.69v6.28A1.993 1.993 0 0 0 12 15a1.993 1.993 0 0 0 1-3.72zm-1 2.92c-.66 0-1.2-.55-1.2-1.2 0-.65.55-1.2 1.2-1.2.65 0 1.2.55 1.2 1.2 0 .65-.55 1.2-1.2 1.2z"/></svg>

<?xml version="1.0" encoding="UTF-8" standalone="no"?>
<svg width="14px" height="16px" viewBox="0 0 14 16" version="1.1" xmlns="http://www.w3.org/2000/svg" xmlns:xlink="http://www.w3.org/1999/xlink">
    <!-- Generator: Sketch 3.8.3 (29802) - http://www.bohemiancoding.com/sketch -->
    <title>git-compare</title>
    <desc>Created with Sketch.</desc>
    <defs></defs>
    <g id="Octicons" stroke="none" stroke-width="1" fill="none" fill-rule="evenodd">
        <g id="git-compare" fill="#000000">
            <path d="M5,12 L4,12 C3.73,11.98 3.52,11.89 3.31,11.69 C3.1,11.49 3.01,11.27 3,11 L3,4.72 C3.59,4.38 4,3.74 4,3 C4,1.89 3.11,1 2,1 C0.89,1 0,1.89 0,3 C0,3.73 0.41,4.38 1,4.72 L1,11 C1.03,11.78 1.34,12.47 1.94,13.06 C2.54,13.65 3.22,13.97 4,14 L5,14 L5,16 L8,13 L5,10 L5,12 L5,12 Z M2,1.8 C2.66,1.8 3.2,2.35 3.2,3 C3.2,3.65 2.65,4.2 2,4.2 C1.35,4.2 0.8,3.65 0.8,3 C0.8,2.35 1.35,1.8 2,1.8 L2,1.8 Z M13,11.28 L13,5 C12.97,4.22 12.66,3.53 12.06,2.94 C11.46,2.35 10.78,2.03 10,2 L9,2 L9,0 L6,3 L9,6 L9,4 L10,4 C10.27,4.02 10.48,4.11 10.69,4.31 C10.9,4.51 10.99,4.73 11,5 L11,11.28 C10.41,11.62 10,12.26 10,13 C10,14.11 10.89,15 12,15 C13.11,15 14,14.11 14,13 C14,12.27 13.59,11.62 13,11.28 L13,11.28 Z M12,14.2 C11.34,14.2 10.8,13.65 10.8,13 C10.8,12.35 11.35,11.8 12,11.8 C12.65,11.8 13.2,12.35 13.2,13 C13.2,13.65 12.65,14.2 12,14.2 L12,14.2 Z" id="Shape"></path>
        </g>
    </g>
</svg>
